X:1
T:Title
%%score { ( 1 4 5 ) | ( 2 3 ) }
L:1/8
Q:1/4=116
M:4/4
K:F
V:1 treble nm="Grand Piano"
V:4 treble 
V:5 treble 
V:2 bass 
V:3 bass 
V:1
 c3 A G2 F2 | [F,B,D]4 [F,A,CF]4 | [Ec]2 [Ec]2 c2 G2 | c8[K:bass] | d3 B A2 G2 | %5
w: J.~Lincoln~Hall * * *|||||
 [A,C^F]4 [G,B,G]4 | G2 z2 z4 | G8[K:bass] | [A,CF]2 [CFA]2 [B,CEG]2 [CEGc]2 | [CFc]4 A,2 z2 | %10
w: |||||
 [B,DG]2 [DB]2 [CD^FA]2 [DFAd]2 | [Gd]4 G4 | [GBe]2 [GBe]2 [GBd]2 [GBc]2 | [Af]4 [FAc]4 | %14
w: ||||
 B2 A2 G2 E2 | F8 | [FAc]2 [FA]2 [EGc]2 [EG]2 | [CFAc]4 [CF]4 | [Gc]2 [GB]2 [^Fd]2 [FA]2 | %19
w: |||||
 [DGBd]4 [GBce]4 | [FAcf]2 [FAc]2 [F_ABe]2 [Bd]2 | [CFAc]4 [D^FAd]4 | %22
w: |||
 [DGB]2 [G,D]2 [B,CEA]2 [B,CEG]2 | [A,CF]8 |] %24
w: ||
V:2
 [A,C]3 A,- A,4 | B,,4 F,,4 | [G,B,C]2 [C,C]2 [G,B,CE]2 [E,CE]2 | [A,CF]8 | %4
 [G,G]4- [G,A,G]2[K:bass] G,2 | D,4 G,,4 | z2 A2 F,4 | [C,E,]2 z2 z4 | F,2 C,2 G,2 C,2 | %9
 [F,A,]2 C,2 F,2 C,2 | G,2 D,2 A,2 D,2 | [G,B,]2 D,2 G,2 D,2 | [C,C]2 [C,C]2 [D,C]2 [E,C]2 | %13
 [F,DF]4 [F,A,_E]4 | [G,B,DG]2 [A,CF]2[K:bass] [B,CE]2 [C,B,C]2 | [F,A,C]8 | %16
 [F,A,C]2 [C,C]2 [G,B,C]2 [C,C]2 | [F,A,]2 C,2 F,2 C,2 | [G,B,D]2 [D,D]2 [G,CD]2 [^F,D]2 | %19
 [G,B,]2 D,2 [C,C]2 [B,,B,]2 | [A,,A,]4 z2 [F_A]2 | [A,,A,]2 [F,,F,]2 [D,,D,]2 [^F,,^F,]2 | %22
 [G,,G,]2 B,,2 C,2 C,2 | F,8 |] %24
V:3
 [F,F]4- [F,G,F]2 F,2 | x8 | x8 | F,2 z2 z4 | [B,D]3 B,- B,4[K:bass] | x8 | G,,8 | %7
 B,2- [C,,B,-]2 [D,,B,-]2 [E,,B,]2 | x8 | x8 | x8 | x8 | x8 | x8 | x4[K:bass] x4 | x8 | x8 | x8 | %18
 x8 | x8 | z4 [_A,,_A,]4 | x8 | x8 | x8 |] %24
V:4
 x8 | x8 | x8 | z2[K:bass] E,2 D,2 C,2 | x8 | x8 | [G,=B,-]4 [B,-G]2 [B,D]2 | %7
 z2[K:bass] C,2 D,2 D,2 | x8 | z4 [CF]4 | x8 | D8 | x8 | x8 | x8 | x8 | x8 | z4 A,2 z2 | x8 | x8 | %20
 x8 | x8 | x8 | x8 |] %24
V:5
 x8 | x8 | x8 | x2[K:bass] x6 | x8 | x8 | x8 | x2[K:bass] x6 | x8 | x8 | x8 | z4 B,2 z2 | x8 | x8 | %14
 x8 | x8 | x8 | x8 | x8 | x8 | x8 | x8 | x8 | x8 |] %24

